dist/styles/ag-theme-alpine/icons/last.svg

<!-- Generated by IcoMoon.io -->
<svg version="1.1" xmlns="http://www.w3.org/2000/svg" width="32" height="32" viewBox="0 0 32 32">
<title>last</title>
<path d="M7.727 9.88l6.12 6.12-6.12 6.12 1.88 1.88 8-8-8-8-1.88 1.88zM21.607 8h2.667v16h-2.667v-16z"></path>
</svg>

<?xml version="1.0" encoding="UTF-8" standalone="no"?>
<!DOCTYPE svg PUBLIC "-//W3C//DTD SVG 1.1//EN" "http://www.w3.org/Graphics/SVG/1.1/DTD/svg11.dtd">
<svg width="100%" height="100%" viewBox="0 0 32 32" version="1.1" xmlns="http://www.w3.org/2000/svg" xmlns:xlink="http://www.w3.org/1999/xlink" xml:space="preserve" xmlns:serif="http://www.serif.com/" style="fill-rule:evenodd;clip-rule:evenodd;stroke-linejoin:round;stroke-miterlimit:2;">
    <path id="last" d="M7.727,9.88L13.847,16L7.727,22.12L9.607,24L17.607,16L9.607,8L7.727,9.88ZM21.607,8L24.274,8L24.274,24L21.607,24L21.607,8Z" style="fill-rule:nonzero;"/>
</svg>
